flaticon/gastronomy/lemon.svg

<svg xmlns="http://www.w3.org/2000/svg" width="32" height="32" viewBox="0 0 24 24">
    <path d="M13.8125 0L13.351562 0 13.351562 3.210938C9.402344.917969 4.371094 1.535156 1.09375 4.816406L.765625 5.140625 2.070312 6.445312 13.351562 17.722656 13.351562 20.308594 13.8125 20.308594C19.410156 20.308594 23.964844 15.753906 23.964844 10.152344 23.964844 4.554688 19.410156 0 13.8125 0zM8.734375 10.878906L8.734375 4.636719C10.324219 4.734375 11.882812 5.34375 13.152344 6.464844zM13.351562 7.570312L13.351562 11.535156 9.386719 11.535156zM7.8125 10.878906L3.386719 6.457031C4.65625 5.335938 6.21875 4.730469 7.8125 4.632812zM9.386719 12.457031L13.351562 12.457031 13.351562 16.417969zM14.273438 11.269531L18.695312 15.6875C17.5 16.746094 15.960938 17.417969 14.273438 17.523438zM19.339844 15.03125L14.925781 10.617188 21.171875 10.617188C21.066406 12.304688 20.394531 13.835938 19.339844 15.03125zM14.925781 9.691406L19.339844 5.277344C20.394531 6.46875 21.066406 8.003906 21.171875 9.691406zM14.273438 9.039062L14.273438 2.785156C15.960938 2.886719 17.5 3.5625 18.695312 4.617188zM13.351562 4.292969L13.351562 5.429688C10.214844 3.003906 5.734375 3.132812 2.742188 5.8125L2.082031 5.148438C5.195312 2.328125 9.828125 1.964844 13.351562 4.292969zM14.273438 19.375L14.273438 18.4375C18.640625 18.195312 22.121094 14.578125 22.121094 10.15625 22.121094 5.730469 18.640625 2.113281 14.273438 1.871094L14.273438.933594C19.148438 1.175781 23.042969 5.21875 23.042969 10.152344 23.042969 15.089844 19.148438 19.132812 14.273438 19.375zM2.34375 9.691406C2.023438 9.691406 1.730469 9.867188 1.578125 10.152344.554688 12.085938.0351562 13.390625.0351562 14.019531.0351562 15.292969 1.070312 16.328125 2.34375 16.328125 3.613281 16.328125 4.648438 15.292969 4.648438 14.019531 4.648438 13.390625 4.128906 12.085938 3.105469 10.152344 2.957031 9.867188 2.664062 9.691406 2.34375 9.691406zM2.34375 15.40625C1.578125 15.40625.957031 14.785156.957031 14.019531.957031 13.675781 1.324219 12.621094 2.34375 10.683594 3.363281 12.621094 3.726562 13.675781 3.726562 14.019531 3.726562 14.785156 3.105469 15.40625 2.34375 15.40625zM8.804688 17.363281C8.484375 17.363281 8.191406 17.539062 8.039062 17.824219 7.015625 19.761719 6.496094 21.0625 6.496094 21.691406 6.496094 22.964844 7.53125 24 8.804688 24 10.078125 24 11.113281 22.964844 11.113281 21.691406 11.113281 21.0625 10.59375 19.761719 9.566406 17.824219 9.417969 17.539062 9.125 17.363281 8.804688 17.363281zM8.804688 23.078125C8.039062 23.078125 7.417969 22.457031 7.417969 21.691406 7.417969 21.347656 7.785156 20.292969 8.804688 18.355469 9.824219 20.292969 10.1875 21.347656 10.1875 21.691406 10.1875 22.457031 9.566406 23.078125 8.804688 23.078125zM8.804688 23.078125"/>
</svg>

<svg xmlns="http://www.w3.org/2000/svg" width="32" height="32" viewBox="0 0 24 24">
    <path d="M13.813 0h-.461v3.21A10.127 10.127 0 0 0 1.094 4.817l-.328.325L2.07 6.445l11.282 11.278v2.586h.46c5.598 0 10.153-4.555 10.153-10.157C23.965 4.555 19.41 0 13.813 0zM8.733 10.879V4.637a7.333 7.333 0 0 1 4.418 1.828zm4.618-3.309v3.965H9.387zm-5.54 3.309L3.388 6.457a7.34 7.34 0 0 1 4.425-1.824zm1.575 1.578h3.965v3.961zm4.886-1.187l4.422 4.418a7.347 7.347 0 0 1-4.422 1.835zm5.067 3.761l-4.414-4.414h6.246a7.345 7.345 0 0 1-1.832 4.414zm-4.414-5.34l4.414-4.414a7.335 7.335 0 0 1 1.832 4.414zm-.653-.652V2.785a7.343 7.343 0 0 1 4.422 1.832zm-.921-4.746V5.43c-3.137-2.426-7.618-2.297-10.61.383l-.66-.665a9.212 9.212 0 0 1 11.27-.855zm.921 15.082v-.938c4.368-.242 7.848-3.859 7.848-8.28 0-4.427-3.48-8.044-7.848-8.286V.934c4.875.242 8.77 4.285 8.77 9.218 0 4.938-3.895 8.98-8.77 9.223zm0 0M2.344 9.691a.866.866 0 0 0-.766.461C.555 12.086.035 13.391.035 14.02a2.31 2.31 0 0 0 2.309 2.308 2.31 2.31 0 0 0 2.304-2.308c0-.63-.52-1.934-1.543-3.868a.856.856 0 0 0-.761-.46zm0 5.715A1.387 1.387 0 0 1 .957 14.02c0-.344.367-1.399 1.387-3.336 1.02 1.937 1.383 2.992 1.383 3.336 0 .765-.622 1.386-1.383 1.386zm0 0M8.805 17.363a.866.866 0 0 0-.766.461c-1.023 1.938-1.543 3.238-1.543 3.867A2.31 2.31 0 0 0 8.805 24a2.31 2.31 0 0 0 2.308-2.309c0-.628-.52-1.93-1.547-3.867a.856.856 0 0 0-.761-.46zm0 5.715a1.387 1.387 0 0 1-1.387-1.387c0-.343.367-1.398 1.387-3.336 1.02 1.938 1.383 2.993 1.383 3.336 0 .766-.622 1.387-1.383 1.387zm0 0"/>
</svg>
